core/img/filetypes/folder-public.svg

<?xml version="1.0" encoding="UTF-8" standalone="no"?>
<svg xmlns="http://www.w3.org/2000/svg" height="16" width="16" version="1.0">
 <path d="m1.4609 2c-0.2505 0-0.4609 0.2104-0.4609 0.4609v11.078c0 0.259 0.2021 0.461 0.4609 0.461h13.078c0.259 0 0.461-0.202 0.461-0.461v-9.0761c0-0.2504-0.21-0.4629-0.461-0.4629h-6.539l-2-2h-4.5391zm8.3829 3.5c0.4252 0 0.8512 0.1603 1.1742 0.4824 0.644 0.6442 0.644 1.7035 0 2.3477l-1.0492 1.0469c0.0442-0.3929-0.0174-0.7896-0.1876-1.1524l0.5648-0.5644c0.284-0.2844 0.284-0.7215 0-1.0059-0.285-0.2844-0.7218-0.2844-1.0062 0l-1.6757 1.6758c-0.2844 0.2843-0.2844 0.7215 0 1.0058 0.0593 0.0594 0.1291 0.1003 0.1992 0.1348l-0.6914 0.6913c-0.0646-0.048-0.1193-0.098-0.1778-0.156-0.6441-0.6443-0.6441-1.7017 0-2.3458l1.6758-1.6778c0.3221-0.3221 0.7483-0.4824 1.1739-0.4824zm-1.0157 2.3379c0.0646 0.0478 0.1193 0.0978 0.1778 0.1562 0.6438 0.6438 0.6431 1.7015 0 2.3459v0.002l-1.6758 1.676c-0.6442 0.644-1.7035 0.644-2.3477 0-0.6442-0.645-0.6442-1.704 0-2.3481l1.0488-1.0469c-0.0438 0.3929 0.0174 0.7896 0.1876 1.1524l-0.5645 0.5646c-0.2844 0.284-0.2844 0.721 0 1.006 0.2844 0.284 0.7215 0.284 1.0059 0l1.6757-1.6761c0.2844-0.2843 0.2844-0.7215 0-1.0058-0.0593-0.0594-0.1291-0.1003-0.1992-0.1348l0.6914-0.6914z" fill-rule="evenodd" fill="#0082c9"/>
</svg>

<svg xmlns="http://www.w3.org/2000/svg" height="16" width="16" version="1"><path d="M1.46 2c-.25 0-.46.21-.46.46v11.08c0 .258.202.46.46.46h13.08c.258 0 .46-.202.46-.46V4.462c0-.25-.21-.463-.46-.463H8L6 2H1.46zm8.384 3.5c.425 0 .85.16 1.174.482a1.668 1.668 0 0 1 0 2.348l-1.05 1.047a2.14 2.14 0 0 0-.187-1.152l.566-.565a.7.7 0 0 0 0-1.006.7.7 0 0 0-1.006 0L7.664 8.33a.7.7 0 0 0 .2 1.14l-.692.692a1.665 1.665 0 0 1-.178-2.502L8.67 5.982A1.655 1.655 0 0 1 9.844 5.5zM8.828 7.838a1.667 1.667 0 0 1 .178 2.502v.002L7.33 12.018a1.668 1.668 0 0 1-2.348 0 1.668 1.668 0 0 1 0-2.348l1.05-1.047c-.045.393.017.79.187 1.152l-.566.565a.7.7 0 0 0 0 1.006.7.7 0 0 0 1.006 0L8.336 9.67a.7.7 0 0 0-.2-1.14l.692-.692z" fill-rule="evenodd" fill="#0082c9"/></svg>
